!!!OTL: Sch&auml;ferlied (3-17), S. 59
!!!id: P0889
**kern
*clefG2
*k[b-]
*F:
{8f
=1
8f
4.f
8a
4cc
4cc
=2
4a
8cc
8a
4g}
=3
{4c
=4
*M4/4
4.a
8b-
4cc
4ff
=5
4b-
4cc
2a}
=6
{4.f
8a
4a
4cc
=7
4g
4a
4f
4c}
=8
{4.a
8b-
4cc
8ff
8ff
=9
4b-
8cc
8b-
2a}
=10
*M3/4
{4a
4g
4c
=11
4f
4a
4cc}
=12
{4a
4g
4g
=13
4f
4a
4cc}
=14
{4b-
4dd
4dd
=15
4cc
4a
4a}
=16
{4b-
4g
4g
=17
2.f}
==
*-
!!!minrhy: 8
!!!meters: 3/4 4/4 ]  ZZ[8
!!!cut: Sch&auml;ferlied (3-17), S. 59
!!!reg: Lothringen
!!!trd: PINCK, Louis: Verklingende Weisen, Bd3, Metz 1933
!!!rhy1:   X_.XX_X_  X_XXX_
!!!rhy2: X_  X_.XX_X_  X_X_X__
!!!key: P0889  08  F 3/4 4/4 ]  ZZ[8
!!!mod: SECHSTONSKALA DUR ?]  AMBITUS[11
!!!kad: 23-535531
!!!akz: 1532_3543_1321_3543_31_31_45_41_
!!!fot: 'a__b__bs'bv_c__d__bs"e__
!!!for: 'a__b__bw_c__d__d__d__dw_
!!!fok: '^a_^a_^d_^__Va_Va_^d_\__
!! PHRAS[VORWIEGEND VOLLTAKTIG]
!!!fkt: yyy
!! LOTH VKL
!! PR[12] 2K[4] 2G[4] 3K[4] 3G[8] 4A[16] 4Ü[0] 5A[0] 6K[0] 6G[0]
!! 7K[0] 7G[0] 8A[0] MEHR[0] SI[36] ABS[25] SR[8] SP[28]
!! ST[8] 2k[12] 2g[24] 3k[8] 3g[8] 4d[0] 4ü[0] 5d[0] 6k[0] 6g[0]
!! 7k[0] 7g[0] 8d[0] mehr[0] si[52] dm[-16] sr[36] sp[16]
!! 1F[93] 2F[7] 3F[0] 4F[0] LF[0] 2P[0] 3P[0] 4P[0] TRI[0] DF[2] AB[30]
!! TF[0] U3K[0] U3[0] U4[0] U4Ü[0] U5[12] U6K[0] U6[8] U7K[0] U7[12]
!! N1[23] N2K[0] N2[8] N3K[0] N3[12] N4[19] N4Ü[0] N5[4] N6K[0] N6[4]
!!!n7k: 0] N7[0] O1[0] O2K[0] O2[0] O3K[0] O3[0] HÖ[0
!!!RNB: symbol: &auml;      = a umlaut  (UTF-8: Å„)
